packages/icons/svg/Outline/bell-off.svg

<svg fill="none" height="24" viewBox="0 0 24 24" width="24" xmlns="http://www.w3.org/2000/svg"><path clip-rule="evenodd" d="m8.90037 5.17108c1.038-.91 2.36103-1.31 3.73703-1.129 2.327.309 4.082 2.413 4.082 4.895v4.46702c0 .202.039.396.096.583l3.605 3.604c.189-.163.352-.358.453-.6.255-.613.116-1.314-.353-1.783l-1.801-1.804v-4.46702c0-3.481-2.502-6.438-5.82-6.877-1.924-.256-3.86003.331-5.31603 1.607-.195.17-.376.351-.548.54l1.432 1.433c.03114-.0356.06184-.07154.09254-.10747v-.00001c.10728-.12559.2145-.25111.34046-.36152zm3.09963 14.82922c-1.084 0-2-.76-2-1.659v-.341h4v.341c0 .899-.916 1.659-2 1.659zm2.029-3.143-.857-.857h-7.65703l1.179-1.182c.378-.378.586-.88.586-1.414v-3.296l-1.968-1.96799c-.017.195-.032.39-.032.587l-.001 4.67699-1.8 1.804c-.469.47-.608 1.169-.354 1.782.255.614.848 1.01 1.512 1.01h3.363v.341c0 2.018 1.794 3.659 4.00003 3.659 2.042 0 3.712-1.411 3.951-3.22l-.779-.78zm5.378 1.1358 1.3 1.3c.391.391.391 1.023 0 1.414-.195.195-.451.293-.707.293s-.512-.098-.707-.293l-2.707-2.707-.586-.586-1.345-1.345-.069-.069-7.30303-7.30302-1.752-1.751-2.238-2.239c-.391-.391-.391-1.023 0-1.414s1.023-.391 1.414 0l1.713 1.713 1.466 1.465 9.52803 9.52902z" fill="#6b7280" fill-rule="evenodd"/></svg>

<svg width="24" height="24" viewBox="0 0 24 24" fill="none" xmlns="http://www.w3.org/2000/svg">
<g id="Icon/Outline/bell-off">
<path id="Mask" fill-rule="evenodd" clip-rule="evenodd" d="M8.90049 5.17089C9.93849 4.26089 11.2615 3.86089 12.6375 4.04189C14.9645 4.35089 16.7195 6.45489 16.7195 8.93689V13.4039C16.7195 13.6059 16.7585 13.7999 16.8155 13.9869L20.4205 17.5909C20.6095 17.4279 20.7725 17.2329 20.8735 16.9909C21.1285 16.3779 20.9895 15.6769 20.5205 15.2079L18.7195 13.4039V8.93689C18.7195 5.45589 16.2175 2.49889 12.8995 2.05989C10.9755 1.80389 9.03949 2.39089 7.58349 3.66689C7.38849 3.83689 7.20749 4.01789 7.03549 4.20689L8.46749 5.63989C8.49864 5.6043 8.52933 5.56836 8.56003 5.53243L8.56003 5.53242C8.66731 5.40683 8.77453 5.2813 8.90049 5.17089ZM12.0001 20C10.9161 20 10.0001 19.24 10.0001 18.341V18H14.0001V18.341C14.0001 19.24 13.0841 20 12.0001 20ZM14.0291 16.857L13.1721 16H5.51509L6.69409 14.818C7.07209 14.44 7.28009 13.938 7.28009 13.404V10.108L5.31209 8.13999C5.29509 8.33499 5.28009 8.52999 5.28009 8.72699L5.27909 13.404L3.47909 15.208C3.01009 15.678 2.87109 16.377 3.12509 16.99C3.38009 17.604 3.97309 18 4.63709 18H8.00009V18.341C8.00009 20.359 9.79409 22 12.0001 22C14.0421 22 15.7121 20.589 15.9511 18.78L15.1721 18L14.0291 16.857ZM19.4071 17.993L20.7071 19.293C21.0981 19.684 21.0981 20.316 20.7071 20.707C20.5121 20.902 20.2561 21 20.0001 21C19.7441 21 19.4881 20.902 19.2931 20.707L16.5861 18L16.0001 17.414L14.6551 16.069L14.5861 16L7.28309 8.69699L5.53109 6.94599L3.29309 4.70699C2.90209 4.31599 2.90209 3.68399 3.29309 3.29299C3.68409 2.90199 4.31609 2.90199 4.70709 3.29299L6.42009 5.00599L7.88609 6.47099L17.4141 16L19.4071 17.993Z" fill="#000000"/>
</g>
</svg>
